gtk/icons/scalable/actions/gesture-rotate-clockwise-symbolic.svg

<svg height="64" width="64" xmlns="http://www.w3.org/2000/svg">
  <path d="m24.498798 23.607523-2.839143 20.435409a2.6852014 2.6852014 138.95481 0 1 -2.659655 2.315689 2.2528671 2.2528671 51.11646 0 1 -2-2.480085v-8.031108a3.5862069 3.5862069 45 0 0 -3.586207-3.586207 3.5199753 3.5199753 133.91152 0 0 -3.4524733 3.586207v9.113892a16.03868 16.03868 45 0 0 16.0386803 16.03868h15.064768a12.51426 12.51426 150.6443 0 0 10.694212-6.01499l5.789196-9.525823a3.9578759 3.9578759 75.644301 0 0 -1.403313-5.48314 3.8604498 3.8604498 161.55408 0 0 -5.130446 1.711241l-.253482.420709a1.5729032 1.5729032 165.77288 0 1 -2.145007.54385 1.4392452 1.4392452 80.649742 0 1 -.329312-1.999992l1.659041-2.873543a3.2081187 3.2081187 75 0 0 -1.174253-4.382371 3.2041325 3.2041325 164.92867 0 0 -4.375463 1.178241l-1.243653 2.154071a1.4684876 1.4684876 165 0 1 -2.005992.537503 1.3979357 1.3979357 77.969911 0 1 -.412052-1.933561l9.611383-16.647405a3.6434853 3.6434853 74.999999 0 0 -1.333608-4.977094 3.5312813 3.5312813 163.14925 0 0 -4.77956 1.447655l-12.30338 21.31008a.9819488.9819488 172.5 0 1 -1.544735.203368 1.8866761 1.8866761 82.477632 0 1 -.218308-1.653228l1.361407-10.404184a3.6853489 3.6853489 52.792504 0 0 -3.133011-4.126468 3.5235685 3.5235685 141.28556 0 0 -3.895634 3.122604z"
        class="foreground-fill foreground-stroke"/>
  <path d="m22.585786 4 4 4-4 4"
        class="transparent-fill foreground-stroke"/>
  <path d="m24 8 h -5 a 8 8 45 0 0 -8 8 v1"
        class="transparent-fill foreground-stroke"/>
  <path d="m20.272593 26.070552a8 8 0 0 1 4.66594-9.461588 8 8 0 0 1 9.98967 3.391036" stroke-linejoin="round"
        class="transparent-fill foreground-stroke"/>
  <path d="m39 17a8 8 0 0 1 5.929448-7.7274067 8 8 0 0 1 8.998755 3.7274067 8 8 0 0 1 -1.271349 9.656854" stroke-linejoin="round"
        class="transparent-fill foreground-stroke"/>
</svg>

<?xml version="1.0" encoding="UTF-8" standalone="no"?>
<svg
   width="64"
   height="64"
   version="1.1"
   id="svg4"
   sodipodi:docname="gesture-rotate-clockwise-symbolic.svg"
   inkscape:version="1.4.2 (ebf0e940d0, 2025-05-08)"
   xmlns:inkscape="http://www.inkscape.org/namespaces/inkscape"
   xmlns:sodipodi="http://sodipodi.sourceforge.net/DTD/sodipodi-0.dtd"
   xmlns="http://www.w3.org/2000/svg"
   xmlns:svg="http://www.w3.org/2000/svg">
  <defs
     id="defs4">
    <inkscape:path-effect
       effect="fillet_chamfer"
       id="path-effect5"
       is_visible="true"
       lpeversion="1"
       nodesatellites_param="F,0,0,1,0,3.6421732,0,1 @ F,0,0,1,0,2.337931,0,1 @ F,0,0,1,0,2.4800847,0,1 @ F,0,0,1,0,3.5862069,0,1 @ F,0,0,1,0,3.5862069,0,1 @ F,0,0,1,0,16.03868,0,1 @ F,0,0,1,0,7.0386803,0,1 @ F,0,0,1,0,4.0479062,0,1 @ F,0,0,1,0,4.0479062,0,1 @ F,0,0,1,0,1.5567032,0,1 @ F,0,0,1,0,1.5567032,0,1 @ F,0,0,1,0,3.2081188,0,1 @ F,0,0,1,0,3.2081188,0,1 @ F,0,0,1,0,1.4684875,0,1 @ F,0,0,1,0,1.4684875,0,1 @ F,0,0,1,0,3.6434854,0,1 @ F,0,0,1,0,3.6434854,0,1 @ F,0,0,1,0,1.2797006,0,1 @ F,0,0,1,0,1.2797006,0,1 @ F,0,0,1,0,3.6421732,0,1"
       radius="0"
       unit="px"
       method="auto"
       mode="F"
       chamfer_steps="1"
       flexible="false"
       use_knot_distance="true"
       apply_no_radius="true"
       apply_with_radius="true"
       only_selected="false"
       hide_knots="false" />
    <inkscape:path-effect
       effect="fillet_chamfer"
       id="path-effect8"
       is_visible="true"
       lpeversion="1"
       nodesatellites_param="F,0,0,1,0,0,0,1 @ F,0,0,1,0,8,0,1 @ F,0,0,1,0,0,0,1"
       radius="0"
       unit="px"
       method="auto"
       mode="F"
       chamfer_steps="1"
       flexible="false"
       use_knot_distance="true"
       apply_no_radius="true"
       apply_with_radius="true"
       only_selected="false"
       hide_knots="false" />
  </defs>
  <sodipodi:namedview
     id="namedview4"
     pagecolor="#ffffff"
     bordercolor="#000000"
     borderopacity="0.25"
     inkscape:showpageshadow="2"
     inkscape:pageopacity="0.0"
     inkscape:pagecheckerboard="0"
     inkscape:deskcolor="#d1d1d1"
     showgrid="true"
     inkscape:zoom="16"
     inkscape:cx="23.21875"
     inkscape:cy="35.5"
     inkscape:window-width="2560"
     inkscape:window-height="1371"
     inkscape:window-x="0"
     inkscape:window-y="0"
     inkscape:window-maximized="1"
     inkscape:current-layer="svg4">
    <inkscape:grid
       id="grid4"
       units="px"
       originx="0"
       originy="0"
       spacingx="1"
       spacingy="1"
       empcolor="#0099e5"
       empopacity="0.30196078"
       color="#0099e5"
       opacity="0.14901961"
       empspacing="5"
       enabled="true"
       visible="true" />
  </sodipodi:namedview>
  <path
     style="fill:none;stroke:#241f31;stroke-width:2;stroke-linecap:round;stroke-linejoin:round;stroke-dasharray:none;paint-order:markers stroke fill"
     d="M 24.498798,23.607523 21.659655,44.042932 A 2.6852014,2.6852014 138.95481 0 1 19,46.358621 2.2528671,2.2528671 51.11646 0 1 17,43.878536 V 35.847428 A 3.5862069,3.5862069 45 0 0 13.413793,32.261221 3.5199753,3.5199753 133.91152 0 0 9.9613197,35.847428 V 44.96132 A 16.03868,16.03868 45 0 0 26,61 l 15.064768,0 A 12.51426,12.51426 150.6443 0 0 51.75898,54.98501 l 5.789196,-9.525823 a 3.9578759,3.9578759 75.644301 0 0 -1.403313,-5.48314 3.8604498,3.8604498 161.55408 0 0 -5.130446,1.711241 l -0.253482,0.420709 a 1.5729032,1.5729032 165.77288 0 1 -2.145007,0.54385 1.4392452,1.4392452 80.649742 0 1 -0.329312,-1.999992 l 1.659041,-2.873543 a 3.2081187,3.2081187 75 0 0 -1.174253,-4.382371 3.2041325,3.2041325 164.92867 0 0 -4.375463,1.178241 l -1.243653,2.154071 a 1.4684876,1.4684876 165 0 1 -2.005992,0.537503 1.3979357,1.3979357 77.969911 0 1 -0.412052,-1.933561 L 50.345627,18.68479 a 3.6434853,3.6434853 74.999999 0 0 -1.333608,-4.977094 3.5312813,3.5312813 163.14925 0 0 -4.77956,1.447655 l -12.30338,21.31008 a 0.9819488,0.9819488 172.5 0 1 -1.544735,0.203368 1.8866761,1.8866761 82.477632 0 1 -0.218308,-1.653228 l 1.361407,-10.404184 a 3.6853489,3.6853489 52.792504 0 0 -3.133011,-4.126468 3.5235685,3.5235685 141.28556 0 0 -3.895634,3.122604 z"
     id="path5"
     inkscape:path-effect="#path-effect5"
     inkscape:original-d="M 25,20 21.337931,46.358621 H 17 v -14.0974 H 9.9613197 V 61 H 48.103448 L 59.650453,42 53.103448,38.220085 49.957556,43.441379 47.508264,42 51.549716,35 46,31.79587 42.418044,38 40,36.603942 52.16737,15.529439 46.054202,12 31.289229,37.573684 30,36.284455 32,21 Z"
     sodipodi:nodetypes="ccccccccccccccccccccc" />
  <path
     style="fill:#000000;fill-opacity:0;stroke:#241f31;stroke-width:2;stroke-linecap:round;stroke-dasharray:none;paint-order:stroke markers fill;stroke-linejoin:round"
     d="m 22.585786,4 4,4 -4,4"
     id="path7" />
  <path
     style="fill:#000000;fill-opacity:0;stroke:#241f31;stroke-width:2;stroke-linecap:round;stroke-dasharray:none;paint-order:stroke markers fill"
     d="m 42,8 h 5 a 8,8 45 0 1 8,8 v 1"
     id="path8"
     inkscape:path-effect="#path-effect8"
     inkscape:original-d="m 42,8 h 13 v 9"
     sodipodi:nodetypes="ccc"
     transform="matrix(-1,0,0,1,67.585786,0)" />
  <path
     style="fill:none;stroke:#241f31;stroke-width:4;stroke-linecap:round;stroke-linejoin:round;stroke-dasharray:none;paint-order:markers stroke fill"
     id="path6"
     sodipodi:type="arc"
     sodipodi:cx="28"
     sodipodi:cy="24"
     sodipodi:rx="8"
     sodipodi:ry="8"
     sodipodi:start="2.8797933"
     sodipodi:end="5.7595865"
     sodipodi:open="true"
     sodipodi:arc-type="arc"
     d="M 20.272593,26.070552 A 8,8 0 0 1 24.938533,16.608964 8,8 0 0 1 34.928203,20" />
  <path
     style="fill:none;stroke:#241f31;stroke-width:4;stroke-linecap:round;stroke-linejoin:round;stroke-dasharray:none;paint-order:markers stroke fill"
     id="path9"
     sodipodi:type="arc"
     sodipodi:cx="47"
     sodipodi:cy="17"
     sodipodi:rx="8"
     sodipodi:ry="8"
     sodipodi:start="3.1415927"
     sodipodi:end="0.78539816"
     sodipodi:open="true"
     sodipodi:arc-type="arc"
     d="M 39,17 A 8,8 0 0 1 44.929448,9.2725933 8,8 0 0 1 53.928203,13 8,8 0 0 1 52.656854,22.656854" />
</svg>
